icons/sequelize.svg

<svg xmlns="http://www.w3.org/2000/svg" width="16" height="16" fill="none"><path fill="#256F44" fill-rule="evenodd" d="M9.68 8.79v.07l-.06-.03.06-.04Z" clip-rule="evenodd"/><path fill="#2977E0" fill-rule="evenodd" d="M8 12.87v1.96l-6-3.45.03-6.9v-.01l1.69.98.04.02v4.95L8 12.87ZM13.97 4.47v6.93l-5.95 3.44-.02-.01v-1.96l2.17-1.25 2.07-1.25v-4.9l.04-.02 1.69-.98Z" clip-rule="evenodd"/><path fill="#2977E0" fill-rule="evenodd" d="M5.89 9.1v1.96l-.87-.5-.8-.46V8.14l1.67.96ZM10.18 9.15v1.96l-.44-.25V9.43l-.47-.28-.1-.06.45-.26.06.03.5.29ZM8.08 10.39v1.96l-.87-.5-.8-.46V9.43l1.14.66.53.3ZM8.01 5.3v.57l-.46.26v-.62L6.34 4.8v-.46l1.67.96ZM5.89 6.48v1.96l-.87-.5-.24-.14-.56-.32V5.51l1.67.97ZM10.18 6.53v1.96l-.44-.25V6.8l-.46-.27-.77-.45v-.51l1.17.67.5.29ZM8.08 7.77v1.96l-.07-.04-.46-.26-.34-.2-.24-.14-.53-.31-.03-.02V6.8l.09.05h.01l1.04.61.53.31Z" clip-rule="evenodd"/><path fill="#46B9FD" fill-rule="evenodd" d="m14 4.46-.03.01v.01l-1.69.97L8 3.01 3.72 5.45l-1.69-.97v-.01L2 4.46 8.02 1 14 4.46ZM6.44 8.78l-.1.06-.45.26-1.67-.96.56-.34.24.14.87.5.45-.26.07-.04v.62l.03.02ZM11.85 8.19l-1.67.96-.5-.29-.06-.03.06-.04.06-.03v-.52l.44.25 1.1-.63.57.33ZM9.74 9.43l-1.23.71-.43.25-.53-.3-1.14-.66v-.02l.39-.22.17-.1.24.14.34.2.46.26.07.04.43-.25.66-.39.1.06.47.28Z" clip-rule="evenodd"/><path fill="#46B9FD" fill-rule="evenodd" d="m9.71 4.32-1.7.98-1.67-.96v-.02l1.67-.96.02-.01.84.49.84.48ZM7.55 5.51l-1.21.71-.45.26-1.67-.97.84-.49.83-.48.45.26 1.21.71ZM11.85 5.57l-1.67.96-.5-.29-1.17-.67v-.02l.85-.48.34-.2.48-.28 1.67.98ZM9.74 6.8l-.14.08-1.09.64-.43.25-.53-.31-1.04-.61H6.5l-.09-.05v-.01l.39-.23.45-.26.3-.17.46-.26.07-.04.43.25.77.45.46.27Z" clip-rule="evenodd"/></svg>

<svg width="16" height="16" viewBox="0 0 16 16" fill="none" xmlns="http://www.w3.org/2000/svg">
<path fill-rule="evenodd" clip-rule="evenodd" d="M9.68 8.79V8.86L9.62 8.83L9.68 8.79Z" fill="#256F44"/>
<path fill-rule="evenodd" clip-rule="evenodd" d="M8 12.87V14.83L2 11.38L2.03 4.48V4.47L3.72 5.45L3.76 5.47V10.42L8 12.87Z" fill="#2977E0"/>
<path fill-rule="evenodd" clip-rule="evenodd" d="M13.97 4.47V11.4L8.02 14.84L8 14.83V12.87L10.17 11.62L12.24 10.37V5.47L12.28 5.45L13.97 4.47Z" fill="#2977E0"/>
<path fill-rule="evenodd" clip-rule="evenodd" d="M5.89 9.1V11.06L5.02 10.56L4.22 10.1V8.14L5.89 9.1Z" fill="#2977E0"/>
<path fill-rule="evenodd" clip-rule="evenodd" d="M10.18 9.15V11.11L9.74 10.86V9.43L9.27 9.15L9.17 9.09L9.62 8.83L9.68 8.86L10.18 9.15Z" fill="#2977E0"/>
<path fill-rule="evenodd" clip-rule="evenodd" d="M8.08 10.39V12.35L7.21 11.85L6.41 11.39V9.43L7.55 10.09L8.08 10.39Z" fill="#2977E0"/>
<path fill-rule="evenodd" clip-rule="evenodd" d="M8.01 5.3V5.87L7.55 6.13V5.51L6.34 4.8V4.34L8.01 5.3Z" fill="#2977E0"/>
<path fill-rule="evenodd" clip-rule="evenodd" d="M5.89 6.48V8.44L5.02 7.94L4.78 7.8L4.22 7.48V5.51L5.89 6.48Z" fill="#2977E0"/>
<path fill-rule="evenodd" clip-rule="evenodd" d="M10.18 6.53V8.49L9.74 8.24V6.8L9.28 6.53L8.51 6.08V5.57L9.68 6.24L10.18 6.53Z" fill="#2977E0"/>
<path fill-rule="evenodd" clip-rule="evenodd" d="M8.08 7.77V9.73L8.01 9.69L7.55 9.43L7.21 9.23L6.97 9.09L6.44 8.78L6.41 8.76V6.8L6.5 6.85H6.51L7.55 7.46L8.08 7.77Z" fill="#2977E0"/>
<path fill-rule="evenodd" clip-rule="evenodd" d="M14 4.46L13.97 4.47V4.48L12.28 5.45L8 3.01L3.72 5.45L2.03 4.48V4.47L2 4.46L8.02 1L14 4.46Z" fill="#46B9FD"/>
<path fill-rule="evenodd" clip-rule="evenodd" d="M6.44 8.78L6.34 8.84L5.89 9.1L4.22 8.14L4.78 7.8L5.02 7.94L5.89 8.44L6.34 8.18L6.41 8.14V8.76L6.44 8.78Z" fill="#46B9FD"/>
<path fill-rule="evenodd" clip-rule="evenodd" d="M11.85 8.19L10.18 9.15L9.68 8.86L9.62 8.83L9.68 8.79L9.74 8.76V8.24L10.18 8.49L11.28 7.86L11.85 8.19Z" fill="#46B9FD"/>
<path fill-rule="evenodd" clip-rule="evenodd" d="M9.74 9.43L8.51 10.14L8.08 10.39L7.55 10.09L6.41 9.43V9.41L6.8 9.19L6.97 9.09L7.21 9.23L7.55 9.43L8.01 9.69L8.08 9.73L8.51 9.48L9.17 9.09L9.27 9.15L9.74 9.43Z" fill="#46B9FD"/>
<path fill-rule="evenodd" clip-rule="evenodd" d="M9.71 4.32L8.01 5.3L6.34 4.34V4.32L8.01 3.36L8.03 3.35L8.87 3.84L9.71 4.32Z" fill="#46B9FD"/>
<path fill-rule="evenodd" clip-rule="evenodd" d="M7.55 5.51L6.34 6.22L5.89 6.48L4.22 5.51L5.06 5.02L5.89 4.54L6.34 4.8L7.55 5.51Z" fill="#46B9FD"/>
<path fill-rule="evenodd" clip-rule="evenodd" d="M11.85 5.57L10.18 6.53L9.68 6.24L8.51 5.57V5.55L9.36 5.07L9.7 4.87L10.18 4.59L11.85 5.57Z" fill="#46B9FD"/>
<path fill-rule="evenodd" clip-rule="evenodd" d="M9.74 6.8L9.6 6.88L8.51 7.52L8.08 7.77L7.55 7.46L6.51 6.85H6.5L6.41 6.8V6.79L6.8 6.56L7.25 6.3L7.55 6.13L8.01 5.87L8.08 5.83L8.51 6.08L9.28 6.53L9.74 6.8Z" fill="#46B9FD"/>
</svg>
